!!!!SEGMENT: d-b--slg-bohn-ms-mus-111--022_jarzebski-adam--canzoni-e-concerti-22-bentrovata.krn
!!!cenid: 16xx:1795
!!!COM: Jarzębski, Adam
!!!COM-rismID: pe30017782
!!!CDT:
!!!CNT:
!!!GTL: Canzoni e Concerti
!!!OTL: 22. Bentrovata
!!!PDT: 1627
!!!AGN:
!!!SMS-siglum: D-B
!!!SMS-shelfmark: Slg Bohn Ms.mus. 111
!!!SMS-shelfwork: 022 G
!!!SMS-variant:
!!!SMS-altvar:
!!!NIFC-rismSourceID: 1001062014
!!!NIFC-rismChildID: 1001062014
!!!NIFC-islandoraID: none
!!!URL-pdf-islandora:
!!!URL-scan: https://digital.staatsbibliothek-berlin.de/werkansicht/?PPN=PPN1049147219 @EN{Scan on Staatsbibliothek zu Berlin Website} @PL{Skany w portalu Staatsbibliothek zu Berlin}
!!!ONB-nifG: UWAGA: Prima vox: s. 35, Seconda vox: s. 95, Bassus sive Vox Tertia: s. 133, Basso continuo: s. 179. Uwaga: proszę wpisywać partie tylko występujące w danym koncercie i nazywać partie wg określeń podawanych przy danym utworze. Kody instr. dla humdrumowców podane zostaną na forum.
!!!AIN: 2 soprn 1 vox
!!!key: G
!!!filter-modern: sic -sq | shed -e "s/TX(.*):t=P:/tx$1:t=P:/LG" | shed -k -e "s/[<>]//g" | shed -e "s/^(\d+[\/\\]right)/$1yy/I;s/^(\d+[\/\\]left)/$1yy/I" | shed -k -e "s/#X/#/g" | shed -k -e "s/-X/-/g" | shed -k -e "s/n//g" | shed -k -e "s/LO:N:acc/LO:n:acc:/L" | shed -e "s/^custos:/Xcustos:/I" | shed -k -e "s/LO:N:vis/LO:n:vis:/L" | shed -e "s/:rj/:RJ/L" | shed -e "s/LO:DY:(a|b|rj)/LO:dy:$1/L" | shed -e "s/-//B" | modori -m | tie -s | autostem -r
**kern	**fba	**kern	**dynam	**kern	**dynam	**kern	**dynam
*	*	*group1	*	*group1	*	*group1	*
*part4	*part4	*part3	*	*part2	*	*part1	*part1
*staff4	*	*staff3	*	*staff2	*	*staff1	*
*I"Baſso Continúo.	*	*I"Tertia Vox	*	*I"Seconda Vox.	*	*I"Canto	*
*mI"Basso continuo	*	*mI"Voce III	*	*mI"Voce II	*	*mI"Soprano	*
*I'bc	*	*I'V III	*	*I'S II	*	*I'S I	*
*	*	*ICvox	*	*ICvox	*	*ICvox	*
*	*	*Ivox	*	*Isoprn	*	*Isoprn	*
*IGcont	*	*	*	*	*	*	*
*clefC1	*	*clefF4	*	*clefG2	*	*clefG2	*
*mclefG2	*	*	*	*	*	*	*
*k[]	*	*k[]	*	*k[]	*	*k[]	*
*G:	*	*G:	*	*G:	*	*G:	*
*M2/2	*	*M2/2	*	*M2/2	*	*M2/2	*
*met(C|)	*	*met(C|)	*	*met(C|)	*	*met(C|)	*
*mmet(c|)	*	*mmet(c|)	*	*mmet(c|)	*	*mmet(c|)	*
=1-	=1-	=1-	=1-	=1-	=1-	=1-	=1-
!!LO:TX:t=P:problem: all\ right or middle	!	!	!
!LO:TX:b:t=Bentrovata:mod=	!	!LO:TX:a:t=A. 3. Doi Sopr&colon; è Baſso.:mod=	!	!LO:TX:a:t=A. 3. Doi Sopr&colon; è Baſso:mod=	!	!LO:TX:a:t=A. 3. Doi. Sopr&colon; è Baſso.:mod=	!
4dd\	.	0r	.	1r	.	4dd\	.
4dd\	.	.	.	.	.	4dd\	.
4dd\	.	.	.	.	.	4dd\	.
4dd\	.	.	.	.	.	4dd\	.
=2-	=2-	=2-	=2-	=2-	=2-	=2-	=2-
*	*	*	*	*	*	*2\right	*
4g/	.	.	.	4g/	.	2dd\	.
4g/	.	.	.	4g/	.	.	.
4g/	.	.	.	4g/	.	2dd\	.
!LO:TX:t=P:problem:kreska pseudotaktowa	!	!	!	!	!	!	!
4g/	.	.	.	4g/	.	.	.
=3-	=3-	=3-	=3-	=3-	=3-	=3-	=3-
2g/	.	1r	.	2g/	.	8r	.
.	.	.	.	.	.	8b\L	.
.	.	.	.	.	.	8b\	.
.	.	.	.	.	.	8cc\J	.
!	!	!	!	!	!	!LO:TX:t=P:problem:mixed beam	!
2g/	.	.	.	2g/	.	8dd\L	.
.	.	.	.	.	.	8g/J	.
.	.	.	.	.	.	8.gg\L	.
!	!	!	!	!	!	!LO:TX:t=P:problem:kreska pseudotaktowa	!
.	.	.	.	.	.	16ff\Jk	.
=4-	=4-	=4-	=4-	=4-	=4-	=4-	=4-
2c/	.	2r	.	8r	.	2ee\	.
.	.	.	.	8e/L	.	.	.
.	.	.	.	8e/	.	.	.
.	.	.	.	8f/J	.	.	.
*clefF4	*	*	*	*	*	*	*
!LO:TX:t=P:problem:kreska pseudotaktowa	!	!	!	!LO:TX:t=P:problem:mixed beam	!	!	!
2C/	.	2C/	.	8g/L	.	8r	.
!	!	!	!	!LO:SIC:s=8cJ	!	!	!
.	.	.	.	8c/	.	8ee\L	.
!	!	!	!	!LO:SIC:s=8.ccL	!	!	!
.	.	.	.	8.cc\	.	8.aa\	.
!	!	!	!	!LO:TX:t=P:problem:kreska pseudotaktowa	!	!LO:TX:t=P:problem:kreska pseudotaktowa	!
.	.	.	.	16b\Jk	.	16gg\Jk	.
=5-	=5-	=5-	=5-	=5-	=5-	=5-	=5-
2D/	.	2D/	.	2a/	.	2ff#X\	.
*2\right	*	*2\right	*	*	*	*	*
2E\	.	2E\	.	2g/	.	1gg	.
=6-	=6-	=6-	=6-	=6-	=6-	=6-	=6-
2C/	.	2C/	.	1a	.	.	.
!LO:TX:t=P:problem:kreska pseudotaktowa	!	!	!	!	!	!LO:TX:a:t=P:problem:# above	!
2D/	.	2D/	.	.	.	2ff#X\	.
=7-	=7-	=7-	=7-	=7-	=7-	=7-	=7-
1GG	.	1GG	.	2g/	.	4.gg\	.
.	.	.	.	.	.	8dd\	.
.	.	.	.	4r	.	4dd\	.
.	.	.	.	4b/	.	4dd\	.
=8-	=8-	=8-	=8-	=8-	=8-	=8-	=8-
2G\	.	4r	.	4b/	.	2dd\	.
.	.	4G\	.	4b/	.	.	.
!	!	!	!	!	!	!LO:TX:t=P:problem:kreska pseudotaktowa	!
!	!	!	!	!LO:TX:t=P:problem:kreska pseudotaktowa	!	!	!
4G\	.	4G\	.	2b/	.	2dd\	.
!LO:TX:t=P:problem:kreska pseudotaktowa	!	!	!	!	!	!	!
4G\	.	4G\	.	.	.	.	.
*	*	*	*	*	*	*custos:b	*
!	!	!	!	!	!	!LO:LB:g=original	!
=9-	=9-	=9-	=9-	=9-	=9-	=9-	=9-
2G\	.	2G\	.	4r	.	4r	.
.	.	.	.	16g/LL	.	16b/LL	.
!	!	!	!	!LO:SIC:v:s=16f#	!	!	!
.	.	.	.	16f/	.	16a/	.
.	.	.	.	16g/	.	16b/	.
.	.	.	.	16a/JJ	.	16cc/JJ	.
2G\	.	2G\	.	8b/L	.	8dd\L	.
.	.	.	.	8b/J	.	8g/J	.
*	*	*	*	*custos:ee	*	*	*
!	!	!	!	!LO:LB:g=original	!	!	!
.	.	.	.	8.ee\L	.	8.gg\L	.
!	!	!	!	!	!	!LO:TX:t=P:problem:kreska pseudotaktowa	!
.	.	.	.	16dd\Jk	.	16ffny\Jk	.
=10-	=10-	=10-	=10-	=10-	=10-	=10-	=10-
!LO:TX:t=P:problem:kreska pseudotaktowa	!	!	!	!	!	!	!
*	*	*	*	*2\right	*	*	*
1C	.	4r	.	2cc\	.	2ee\	.
.	.	16E\LL	.	.	.	.	.
.	.	16D\	.	.	.	.	.
.	.	16E\	.	.	.	.	.
.	.	16F\JJ	.	.	.	.	.
!	!	!LO:TX:t=P:problem:mixed beam	!	!	!	!LO:N:vis=8	!
.	.	8G\L	.	2r	.	4r	.
.	.	8C/J	.	.	.	.	.
.	.	8.c\L	.	.	.	8ee\L	.
.	.	.	.	.	.	16aa\L	.
!	!	!LO:TX:t=P:problem:kreska pseudotaktowa	!	!	!	!	!
.	.	16B\Jk	.	.	.	16gg\JJ	.
*	*	*custos:A	*	*	*	*	*
!	!	!LO:LB:g=original	!	!	!	!	!
=11-	=11-	=11-	=11-	=11-	=11-	=11-	=11-
2D/	.	2A\	.	8r	.	2ff#X\	.
.	.	.	.	8dd\L	.	.	.
.	.	.	.	8dd\	.	.	.
.	.	.	.	8cc\J	.	.	.
2E\	.	4r	.	4b/	.	1gg	.
.	.	4E\	.	8a/L	.	.	.
.	.	.	.	8g/J	.	.	.
=12-	=12-	=12-	=12-	=12-	=12-	=12-	=12-
2C/	.	2C/	.	2a/	.	.	.
2D/	.	2D/	.	2a/	.	2ff#X\	.
*custos:GG	*	*	*	*	*	*	*
!LO:LB:g=original	!	!	!	!	!	!	!
=13-	=13-	=13-	=13-	=13-	=13-	=13-	=13-
1GG	.	1GG	.	1b	.	1gg	.
=14-	=14-	=14-	=14-	=14-	=14-	=14-	=14-
2r	.	2r	.	2r	.	2r	.
4G\	.	4G\	.	4b/	.	4dd\	.
!LO:TX:t=P:problem:kreska pseudotaktowa	!	!	!	!	!	!	!
4G\	.	4G\	.	4b/	.	4dd\	.
=15-	=15-	=15-	=15-	=15-	=15-	=15-	=15-
2G\	.	2G\	.	2b/	.	2dd\	.
2A\	.	2A\	.	2a/	.	2cc\	.
=16-	=16-	=16-	=16-	=16-	=16-	=16-	=16-
!LO:TX:t=P:problem:kreska pseudotaktowa	!	!	!	!	!	!	!
1E	.	1E	.	1g#X	.	1b	.
=17-	=17-	=17-	=17-	=17-	=17-	=17-	=17-
2r	.	2r	.	2r	.	2r	.
4C/	.	4C/	.	4ee\	.	4gg\	.
4C/	.	4C/	.	4ee\	.	4gg\	.
=18-	=18-	=18-	=18-	=18-	=18-	=18-	=18-
2C/	.	2C/	.	2ee\	.	2gg\	.
!LO:TX:t=P:problem:kreska pseudotaktowa	!	!	!	!	!	!	!
2D/	.	2D/	.	2dd\	.	2ffny\	.
=19-	=19-	=19-	=19-	=19-	=19-	=19-	=19-
!	!	!	!	!	!	!LO:TX:t=P:problem:kreska pseudotaktowa	!
1AA	.	1AA	.	1cc#X	.	1ee	.
*	*	*	*	*	*	*custos:gg	*
!	!	!	!	!	!	!LO:LB:g=original	!
=20-	=20-	=20-	=20-	=20-	=20-	=20-	=20-
4r	.	4r	.	4r	.	4r	.
8C/L	.	8C/L	.	8ee\L	.	8gg\L	.
8C/J	.	8C/J	.	8ee\J	.	8gg\J	.
4C/	.	4C/	.	4ee\	.	4gg\	.
!LO:TX:t=P:problem:kreska pseudotaktowa	!	!	!	!	!	!LO:TX:t=P:problem:kreska pseudotaktowa	!
4D/	.	4D/	.	4dd\	.	4ff\	.
=21-	=21-	=21-	=21-	=21-	=21-	=21-	=21-
4.AA/	.	4.AA/	.	4.ccny\	.	4.ee\	.
16AA/LL	.	16AA/LL	.	16cc\LL	.	16ee\LL	.
16AA/JJ	.	16AA/JJ	.	16cc\JJ	.	16ee\JJ	.
4AA/	.	4AA/	.	4cc\	.	4ee\	.
!	!	!LO:TX:t=P:problem:kreska pseudotaktowa	!	!	!	!	!
4BB-X/	.	4BB-X/	.	4b-X/	.	4dd\	.
*	*	*	*	*custos:a	*	*	*
!	!	!	!	!LO:LB:g=original	!	!	!
=22-	=22-	=22-	=22-	=22-	=22-	=22-	=22-
4.FF/	.	4.FF/	.	4.a/	.	4.cc\	.
16FF/LL	.	16FF/LL	.	16a/LL	.	16cc\LL	.
16FF/JJ	.	16FF/JJ	.	16a/JJ	.	16cc\JJ	.
*	*	*custos:FF	*	*	*	*	*
!	!	!LO:LB:g=original	!	!	!	!	!
4FF/	.	4FF/	.	4a/	.	4cc\	.
!LO:TX:t=P:problem:kreska pseudotaktowa	!	!	!	!	!	!	!
4GG/	.	4GG/	.	8gny/L	.	4b/	.
!	!	!	!	!LO:TX:t=P:problem:kreska pseudotaktowa	!	!	!
.	.	.	.	8f/J	.	.	.
=23-	=23-	=23-	=23-	=23-	=23-	=23-	=23-
2AA/	.	2AA/	.	4e/	.	2cc#X\	.
.	.	.	.	8.a/L	.	.	.
.	.	.	.	16g/Jk	.	.	.
2BB-X/	.	2BB-X/	.	4f/	.	2dd\	.
.	.	.	.	8e/L	.	.	.
!	!	!	!	!LO:TX:t=P:problem:kreska pseudotaktowa	!	!	!
.	.	.	.	8d/J	.	.	.
=24-	=24-	=24-	=24-	=24-	=24-	=24-	=24-
!LO:TX:t=P:problem:kreska pseudotaktowa	!	!	!	!	!	!	!
1AA	.	4AA/	.	2e/	.	2cc#X\	.
.	.	[4A\	.	.	.	.	.
.	.	8.A\L]	.	2r	.	8r	.
.	.	.	.	.	.	8ee\L	.
.	.	16G\Jk	.	.	.	.	.
.	.	8.F\L	.	.	.	8.aa\	.
!	!	!LO:TX:t=P:problem:kreska pseudotaktowa	!	!	!	!LO:TX:t=P:problem:kreska pseudotaktowa	!
.	.	16E\Jk	.	.	.	16gg\Jk	.
*custos:D	*	*	*	*	*	*	*
!LO:LB:g=original	!	!	!	!	!	!	!
=25-	=25-	=25-	=25-	=25-	=25-	=25-	=25-
2D/	.	8.D/	.	8r	.	2ff#X\	.
!	!	!	!	!LO:SIC:s=8aL	!	!	!
.	.	.	.	8a/	.	.	.
.	.	16C/	.	.	.	.	.
!	!	!	!	!LO:SIC:s=8.dd	!	!	!
.	.	8.BBny/L	.	8.dd\L	.	.	.
.	.	16AA/Jk	.	16cc\Jk	.	.	.
!	!	!	!	!LO:TX:t=P:problem:kreska pseudotaktowa	!	!	!
2GG/	.	4GG/	.	2bny/	.	8r	.
.	.	.	.	.	.	8dd\L	.
.	.	8.E\L	.	.	.	8.gg\	.
!	!	!LO:TX:t=P:problem:kreska pseudotaktowa	!	!	!	!LO:TX:t=P:problem:kreska pseudotaktowa	!
.	.	16D\Jk	.	.	.	16ff#\Jk	.
=26-	=26-	=26-	=26-	=26-	=26-	=26-	=26-
2C/	.	8.C/L	.	8r	.	2ee\	.
!	!	!	!	!LO:SIC:s=8gL	!	!	!
.	.	.	.	8g/	.	.	.
.	.	16BB/Jk	.	.	.	.	.
!	!	!	!	!LO:SIC:s=8.cc	!	!	!
.	.	8.AA/L	.	8.cc\L	.	.	.
!	!	!	!	!LO:TX:a:t=P:problem:♭ above	!	!	!
.	.	16GG/Jk	.	16b-X\Jk	.	.	.
!LO:TX:t=P:problem:kreska pseudotaktowa	!	!	!	!	!	!	!
2FF/	.	4FF/	.	2a/	.	8r	.
.	.	.	.	.	.	8ccny\L	.
.	.	8.D/L	.	.	.	8.ffny\	.
!	!	!LO:TX:t=P:problem:kreska pseudotaktowa	!	!	!	!LO:TX:a:t=P:problem:♭ above	!
.	.	16C/Jk	.	.	.	16ee-X\Jk	.
*	*	*	*	*	*	*custos:dd	*
!	!	!	!	!	!	!LO:LB:g=original	!
=27-	=27-	=27-	=27-	=27-	=27-	=27-	=27-
4BB-X/	.	8.BB-X/L	.	8r	.	2dd\	.
.	.	.	.	8f/L	.	.	.
.	.	16AA/Jk	.	.	.	.	.
4GG/	.	4GG/	.	8.b-X/	.	.	.
.	.	.	.	16a/Jk	.	.	.
!	!	!	!	!LO:TX:t=P:problem:kreska pseudotaktowa	!	!	!
2GG/	.	8.G\L	.	2g/	.	8r	.
.	.	.	.	.	.	8dd\L	.
.	.	16F\Jk	.	.	.	.	.
*	*	*custos:E	*	*	*	*	*
!	!	!LO:LB:g=original	!	!	!	!	!
.	.	8.E\L	.	.	.	8.gg\	.
!	!	!	!	!	!	!LO:TX:t=P:problem:kreska pseudotaktowa	!
.	.	16D\Jk	.	.	.	16ff\Jk	.
=28-	=28-	=28-	=28-	=28-	=28-	=28-	=28-
4C/	.	8.C/L	.	8r	.	2eeny\	.
.	.	.	.	8g/L	.	.	.
.	.	16BB-/Jk	.	.	.	.	.
4AA/	.	4AA/	.	8.cc/	.	.	.
!	!	!	!	!LO:TX:a:t=P:problem:♭ below	!	!	!
.	.	.	.	16b-X/Jk	.	.	.
!	!	!	!	!LO:TX:t=P:problem:kreska pseudotaktowa	!	!	!
!LO:TX:t=P:problem:kreska pseudotaktowa	!	!	!	!	!	!	!
2AA/	.	8.A\L	.	2a/	.	8r	.
.	.	.	.	.	.	8ee\L	.
.	.	16G\Jk	.	.	.	.	.
.	.	8.F\L	.	.	.	8.aa\	.
!	!	!LO:TX:t=P:problem:kreska pseudotaktowa	!	!	!	!LO:TX:t=P:problem:kreska pseudotaktowa	!
.	.	16E\Jk	.	.	.	16gg\Jk	.
*	*	*	*	*custos:a	*	*	*
!	!	!	!	!LO:LB:g=original	!	!	!
=29-	=29-	=29-	=29-	=29-	=29-	=29-	=29-
4D/	.	8.D/L	.	8r	.	2ff#X\	.
!	!	!	!	!LO:SIC:s=8aL	!	!	!
.	.	.	.	8a/	.	.	.
.	.	16C/Jk	.	.	.	.	.
!	!	!	!	!LO:SIC:s=8.dd	!	!	!
4BBny/	.	4BBny/	.	8.dd\L	.	.	.
.	.	.	.	16cc\Jk	.	.	.
!	!	!	!	!LO:TX:t=P:problem:kreska pseudotaktowa	!	!	!
2BB/	.	8.B\L	.	2bny/	.	8r	.
!	!	!	!	!	!	!LO:TX:a:t=P:problem:# above	!
.	.	.	.	.	.	8ff#X\L	.
.	.	16A\Jk	.	.	.	.	.
.	.	8.G\L	.	.	.	8.bb\	.
!	!	!LO:TX:t=P:problem:kreska pseudotaktowa	!	!	!	!LO:TX:t=P:problem:kreska pseudotaktowa	!
.	.	16F\Jk	.	.	.	16aa\Jk	.
=30-	=30-	=30-	=30-	=30-	=30-	=30-	=30-
2E\	.	2E\	.	8r	.	2gg#X\	.
!	!	!	!	!LO:SIC:s=8bL	!	!	!
.	.	.	.	8b/	.	.	.
!	!	!	!	!LO:SIC:s=8.ee	!	!	!
.	.	.	.	8.ee\L	.	.	.
.	.	.	.	16dd\Jk	.	.	.
!LO:TX:t=P:problem:kreska pseudotaktowa	!	!	!	!	!	!	!
2F\	.	2F\	.	4cc\	.	1aa\	.
.	.	.	.	8b/L	.	.	.
!	!	!	!	!LO:TX:t=P:problem:kreska pseudotaktowa	!	!	!
.	.	.	.	8a/J	.	.	.
=31-	=31-	=31-	=31-	=31-	=31-	=31-	=31-
!	!	!LO:TX:t=P:problem:kreska pseudotaktowa	!	!	!	!	!
1E	.	1E	.	2b/	.	.	.
.	.	.	.	2b/	.	2gg#X\	.
=32-	=32-	=32-	=32-	=32-	=32-	=32-	=32-
!LO:TX:t=P:problem:kreska pseudotaktowa	!	!	!	!	!	!	!
1AA	.	1AA	.	4cc#X\	.	2aa\	.
.	.	.	.	2dd\	.	.	.
.	.	.	.	.	.	8r	.
.	.	.	.	.	.	8ee\L	.
!	!	!	!	!LO:TX:a:t=P:problem:# above	!	!	!
.	.	.	.	4cc#X\	.	8.aa\	.
!	!	!	!	!	!	!LO:TX:t=P:problem:kreska pseudotaktowa	!
.	.	.	.	.	.	16gg#\Jk	.
!	!	!LO:MO:mod=*null:null	!	!	!	!	!
*	*	*clefC4	*	*	*	*	*
=33-	=33-	=33-	=33-	=33-	=33-	=33-	=33-
2D/	.	8r	.	2dd\	.	2ff#X\	.
!	!	!LO:SIC:s=8AL	!	!	!	!	!
.	.	8A/	.	.	.	.	.
.	.	8.d\	.	.	.	.	.
!	!	!LO:SIC:s=16cJ	!	!	!	!	!
.	.	16c\	.	.	.	.	.
!	!	!LO:TX:t=P:problem:kreska pseudotaktowa	!	!	!	!	!
!	!	!	!	!LO:TX:t=P:problem:kreska pseudotaktowa	!	!	!
2GG/	.	2B\	.	2r	.	8r	.
.	.	.	.	.	.	8dd\L	.
.	.	.	.	.	.	8.ggny\	.
!	!	!	!	!	!	!LO:TX:t=P:problem:kreska pseudotaktowa	!
.	.	.	.	.	.	16ff#\Jk	.
*	*	*custos:G	*	*	*	*	*
!	!	!LO:LB:g=original	!	!	!	!	!
=34-	=34-	=34-	=34-	=34-	=34-	=34-	=34-
2C/	.	8r	.	2r	.	2ee\	.
!	!	!LO:SIC:s=8GL	!	!	!	!	!
.	.	8G/	.	.	.	.	.
!	!	!LO:SIC:s=8.c	!	!	!	!	!
.	.	8.c\L	.	.	.	.	.
.	.	16B\Jk	.	.	.	.	.
*	*	*	*	*	*	*custos:cc	*
!LO:TX:t=P:problem:kreska pseudotaktowa	!	!LO:TX:t=P:problem:kreska pseudotaktowa	!	!	!	!LO:LB:g=original	!
2FF/	.	2A/	.	8r	.	8r	.
!	!	!	!	!LO:SIC:s=8aL	!	!	!
.	.	.	.	8a/	.	8cc\L	.
!	!	!	!	!LO:SIC:s=8.dd	!	!	!
.	.	.	.	8.dd\L	.	8.ffny\	.
!	!	!	!	!LO:TX:t=P:problem:kreska pseudotaktowa	!	!LO:TX:t=P:problem:kreska pseudotaktowa	!
.	.	.	.	16ccny\Jk	.	16ee\Jk	.
=35-	=35-	=35-	=35-	=35-	=35-	=35-	=35-
4BB-X/	.	8r	.	8.b-X/L	.	2dd\	.
!	!	!LO:SIC:s=8FL	!	!	!	!	!
.	.	8F/	.	.	.	.	.
.	.	.	.	16a/Jk	.	.	.
!	!	!LO:SIC:s=8.B-	!	!	!	!	!
4GG/	.	8.B-X\L	.	4g/	.	.	.
.	.	16A\Jk	.	.	.	.	.
!	!	!LO:TX:t=P:problem:kreska pseudotaktowa	!	!	!	!	!
2GG/	.	2G/	.	8.gg\L	.	8r	.
.	.	.	.	.	.	8dd\L	.
.	.	.	.	16ff\Jk	.	.	.
.	.	.	.	8.ee\L	.	8.gg\	.
!	!	!	!	!LO:TX:t=P:problem:kreska pseudotaktowa	!	!LO:TX:t=P:problem:kreska pseudotaktowa	!
.	.	.	.	16dd\Jk	.	16ff\Jk	.
=36-	=36-	=36-	=36-	=36-	=36-	=36-	=36-
!	!	!	!	!LO:SIC:s=8.ccL	!	!	!
4C/	.	8r	.	8.cc\	.	2ee\	.
!	!	!LO:SIC:s=8GL	!	!	!	!	!
.	.	8G/	.	.	.	.	.
!	!	!	!	!LO:TX:a:t=P:problem:♭ below	!	!	!
!	!	!	!	!LO:SIC:s=16b-J	!	!	!
.	.	.	.	16b-/	.	.	.
!	!	!LO:SIC:s=8.c	!	!	!	!	!
4AA/	.	8.c\L	.	4a/	.	.	.
.	.	16B-\Jk	.	.	.	.	.
*	*	*	*	*custos:aa	*	*	*
!	!	!LO:TX:t=P:problem:kreska pseudotaktowa	!	!LO:LB:g=original	!	!	!
2AA/	.	2A/	.	8.aa\L	.	8r	.
.	.	.	.	.	.	8ee\L	.
.	.	.	.	16gg\Jk	.	.	.
.	.	.	.	8.ff\L	.	8.aa\	.
!	!	!	!	!LO:TX:t=P:problem:kreska pseudotaktowa	!	!LO:TX:t=P:problem:kreska pseudotaktowa	!
.	.	.	.	16ee\Jk	.	16gg\Jk	.
*custos:D	*	*	*	*	*	*	*
!LO:LB:g=original	!	!	!	!	!	!	!
=37-	=37-	=37-	=37-	=37-	=37-	=37-	=37-
4D/	.	8r	.	2dd\	.	2ff#X\	.
!	!	!LO:SIC:s=8AL	!	!	!	!	!
.	.	8A/	.	.	.	.	.
!	!	!LO:SIC:s=8.d	!	!	!	!	!
4BBny/	.	8.d\L	.	.	.	.	.
.	.	16c\Jk	.	.	.	.	.
!	!	!LO:TX:t=P:problem:kreska pseudotaktowa	!	!	!	!	!
2BB/	.	2Bny\	.	8r	.	8r	.
!	!	!	!	!	!	!LO:TX:a:t=P:problem:# above	!
.	.	.	.	8dd\L	.	8ff#X\L	.
.	.	.	.	8.gg\	.	8.bb\	.
!	!	!	!	!LO:TX:t=P:problem:kreska pseudotaktowa	!	!LO:TX:t=P:problem:kreska pseudotaktowa	!
.	.	.	.	16ff\Jk	.	16aa\Jk	.
=38-	=38-	=38-	=38-	=38-	=38-	=38-	=38-
2E\	.	8r	.	2ee\	.	2gg#X\	.
!	!	!LO:SIC:s=8BL	!	!	!	!	!
.	.	8B\	.	.	.	.	.
!	!	!LO:SIC:s=8.e	!	!	!	!	!
.	.	8.e\L	.	.	.	.	.
.	.	16d\Jk	.	.	.	.	.
!LO:TX:t=P:problem:kreska pseudotaktowa	!	!	!	!	!	!	!
2F\	.	4c\	.	8r	.	1aa\	.
.	.	.	.	8a/L	.	.	.
.	.	8B\L	.	8g/	.	.	.
.	.	8A\J	.	8f/J	.	.	.
*	*	*custos:E	*	*	*	*	*
!	!	!LO:LB:g=original	!	!	!	!	!
=39-	=39-	=39-	=39-	=39-	=39-	=39-	=39-
!	!	!	!	!LO:TX:t=P:problem:mixed beam	!	!	!
1E	.	1E	.	8e/L	.	.	.
.	.	.	.	8ee\	.	.	.
.	.	.	.	8dd\	.	.	.
.	.	.	.	8cc\J	.	.	.
!	!	!	!	!LO:TX:t=P:problem:kreska pseudotaktowa	!	!	!
.	.	.	.	2bny/	.	2gg#X\	.
=40-	=40-	=40-	=40-	=40-	=40-	=40-	=40-
2.AA/	.	2A/	.	2cc#X\	.	2aa\	.
.	.	4r	.	4r	.	4r	.
!LO:TX:t=P:problem:kreska pseudotaktowa	!	!	!	!	!	!	!
4F\	.	4F/	.	4ff\	.	4aa\	.
=41-	=41-	=41-	=41-	=41-	=41-	=41-	=41-
2C/	.	2c\	.	2ee\	.	2ggny\	.
2D/	.	2d\	.	2dd\	.	2ffny\	.
*	*	*	*	*	*	*custos:ee	*
!	!	!	!	!	!	!LO:LB:g=original	!LO:DY:a
=42-	=42-	=42-	=42-	=42-	=42-	=42-	=42-
!	!	!	!	!	!	!	!LO:MO:null:mod=.
2.A\	.	2A/	.	2cc#X\	.	2ee\	f
.	.	4r	.	4r	.	4r	.
!	!	!	!LO:MO:null:mod=!LO&colon;DY&colon;ed=brack	!	!LO:MO:null:mod=!LO&colon;DY&colon;ed=brack	!	!
!	!	!	!	!	!	!	!
!LO:TX:t=P:problem:kreska pseudotaktowa	!	!	!LO:MO:null:mod=f	!LO:TX:t=P:problem:kreska pseudotaktowa	!LO:MO:null:mod=f	!	!LO:MO:null:mod=f
4F\	.	4F/	.	4ff\	.	4aa\	.
=43-	=43-	=43-	=43-	=43-	=43-	=43-	=43-
4c\	.	4c\	.	8ee\L	.	8gg\L	.
.	.	.	.	16dd\L	.	16ff\L	.
!	!	!	!	!	!	!LO:SIC:s=16ggJJ	!
.	.	.	.	16ee\JJ	.	16gg\J	.
!	!	!	!	!	!	!LO:SIC:s=8.aaL	!
4A\	.	4A/	.	8.ff\L	.	8.aa\	.
.	.	.	.	16ee\Jk	.	16gg\Jk	.
4B-X\	.	4B-X\	.	8dd\L	.	8ff\L	.
.	.	.	.	16ccny\L	.	16ee\L	.
!	!	!	!	!	!	!LO:SIC:s=16ffJJ	!
.	.	.	.	16dd\JJ	.	16ff\J	.
!	!	!	!	!	!	!LO:SIC:s=8.ggL	!
4G\	.	4G/	.	8.ee\L	.	8.gg\	.
!	!	!	!	!	!	!LO:TX:t=P:problem:kreska pseudotaktowa	!
.	.	.	.	16dd\Jk	.	16ff\Jk	.
*	*	*	*	*custos:cc#	*	*	*
!	!	!	!	!LO:LB:g=original	!	!	!LO:DY:a
=44-	=44-	=44-	=44-	=44-	=44-	=44-	=44-
!	!	!	!	!	!	!	!LO:MO:null:mod=.
2.A\	.	2A/	.	2cc#X\	.	2ee\	p
.	.	4r	.	4r	.	4r	.
!	!	!	!LO:MO:null:mod=!LO&colon;DY&colon;ed=brack	!	!LO:MO:null:mod=!LO&colon;DY&colon;ed=brack	!	!
!	!	!	!	!	!	!	!
!LO:TX:t=P:problem:kreska pseudotaktowa	!	!	!LO:MO:null:mod=p	!LO:TX:t=P:problem:kreska pseudotaktowa	!LO:MO:null:mod=p	!	!LO:MO:null:mod=p
4F\	.	4F/	.	4ff\	.	4aa\	.
=45-	=45-	=45-	=45-	=45-	=45-	=45-	=45-
4c\	.	4c\	.	8ee\L	.	8gg\L	.
.	.	.	.	16dd\L	.	16ff\L	.
!	!	!	!	!	!	!LO:SIC:s=16ggJJ	!
.	.	.	.	16ee\JJ	.	16gg\J	.
!	!	!	!	!	!	!LO:SIC:s=8.aaL	!
4A\	.	4A/	.	8.ff\L	.	8.aa\	.
.	.	.	.	16ee\Jk	.	16gg\Jk	.
4B-X\	.	4B-X\	.	8dd\L	.	8ff\L	.
.	.	.	.	16ccny\L	.	16ee\L	.
!	!	!	!	!	!	!LO:SIC:s=16ffJJ	!
.	.	.	.	16dd\JJ	.	16ff\J	.
!	!	!	!	!	!	!LO:SIC:s=8.ggL	!
4G\	.	4G/	.	8.ee\L	.	8.gg\	.
!	!	!	!	!LO:TX:t=P:problem:kreska pseudotaktowa	!	!LO:TX:t=P:problem:kreska pseudotaktowa	!
.	.	.	.	16dd\Jk	.	16ff\Jk	.
=46-	=46-	=46-	=46-	=46-	=46-	=46-	=46-
4A\	.	4A/	.	16cc\LL	.	16ee\LL	.
.	.	.	.	16dd\	.	16ff\	.
.	.	.	.	16ee\	.	16gg\	.
.	.	.	.	16cc\JJ	.	16ee\JJ	.
4F\	.	4F/	.	8.dd\L	.	8.ff\L	.
.	.	.	.	16cc\Jk	.	16ee\Jk	.
4G\	.	4G/	.	16b\LL	.	16dd\LL	.
.	.	.	.	16cc\	.	16ee\	.
.	.	.	.	16dd\	.	16ff\	.
.	.	.	.	16b\JJ	.	16dd\JJ	.
!LO:TX:t=P:problem:kreska pseudotaktowa	!	!	!	!	!	!	!
4E\	.	4E/	.	8.cc\L	.	8.ee\L	.
!	!	!	!	!LO:TX:t=P:problem:kreska pseudotaktowa	!	!LO:TX:t=P:problem:kreska pseudotaktowa	!
.	.	.	.	16b\Jk	.	16dd\Jk	.
*custos:F	*	*	*	*	*	*	*
!LO:LB:g=original	!	!	!	!	!	!	!
=47-	=47-	=47-	=47-	=47-	=47-	=47-	=47-
4F\	.	4F/	.	16a/LL	.	16cc\LL	.
.	.	.	.	16b/	.	16dd\	.
.	.	.	.	16cc/	.	16ee\	.
.	.	.	.	16a/JJ	.	16cc\JJ	.
4D/	.	4D/	.	8.b/L	.	8.dd\L	.
.	.	.	.	16a/Jk	.	16cc\Jk	.
*	*	*	*	*	*	*custos:b	*
!	!	!	!	!	!	!LO:LB:g=original	!
4E\	.	4E/	.	16g/LL	.	16b\LL	.
.	.	.	.	16a/	.	16cc\	.
.	.	.	.	16b/	.	16dd\	.
.	.	.	.	16g/JJ	.	16b\JJ	.
4C/	.	4C/	.	8.a/L	.	8.cc\L	.
!	!	!	!	!LO:TX:t=P:problem:kreska pseudotaktowa	!	!LO:TX:t=P:problem:kreska pseudotaktowa	!
.	.	.	.	16g/Jk	.	16b\Jk	.
=48-	=48-	=48-	=48-	=48-	=48-	=48-	=48-
2D/	.	2D/	.	2f#X/	.	4a/	.
.	.	.	.	.	.	2dd\	.
!LO:TX:t=P:problem:kreska pseudotaktowa	!	!	!	!	!	!	!
2BB/	.	2BB/	.	1g/	.	.	.
.	.	.	.	.	.	8cc\L	.
.	.	.	.	.	.	8b\J	.
*	*	*custos:C	*	*	*	*	*
!	!	!LO:LB:g=original	!	!	!	!	!
=49-	=49-	=49-	=49-	=49-	=49-	=49-	=49-
2C/	.	2C/	.	.	.	2a/	.
!	!	!	!	!LO:TX:b:t=P:problem:# below	!	!	!
2D/	.	2D/	.	2f#X/	.	2a/	.
*	*	*	*	*custos:g	*	*	*
!	!	!	!	!LO:LB:g=original	!	!	!
=50-	=50-	=50-	=50-	=50-	=50-	=50-	=50-
!LO:TX:t=P:problem:kreska pseudotaktowa	!	!	!	!	!	!	!
1GG	.	1G	.	1g	.	1g	.
=-	=-	=-	=-	=-	=-	=-	=-
*M3/2	*	*M3/2	*	*M3/2	*	*M3/2	*
*met(3)	*	*met(3)	*	*met(3)	*	*met(3)	*
!	!	!	!LO:MO:null:mod=!LO&colon;DY&colon;ed=brack	!	!LO:MO:null:mod=!LO&colon;DY&colon;ed=brack	!	!
!	!	!	!	!	!	!	!
!	!	!	!LO:MO:null:mod=f	!	!LO:MO:null:mod=f	!	!LO:DY:a:t=f.
1GG	.	1G	.	4.b/	.	4.dd\	f
.	.	.	.	8cc\	.	8ee\	.
.	.	.	.	4.b/	.	4.dd\	.
.	.	.	.	8a/	.	8cc\	.
2GG/	.	2G/	.	4.g/	.	4.b/	.
.	.	.	.	8a/	.	8cc\	.
=51-	=51-	=51-	=51-	=51-	=51-	=51-	=51-
!LO:TX:t=P:problem:kreska pseudotaktowa	!	!	!	!LO:TX:t=P:problem:kreska pseudotaktowa	!	!	!
!	!	!	!	!LO:MO:mod=1f#	!	!	!
1.D	.	1d	.	1.f#X	.	1a	.
!	!	!LO:TX:t=P:problem:kreska pseudotaktowa	!	!LO:MO:null:mod=2r	!	!LO:TX:t=P:problem:kreska pseudotaktowa	!
.	.	2r	.	.	.	2r	.
=52-	=52-	=52-	=52-	=52-	=52-	=52-	=52-
!	!	!	!LO:MO:null:mod=!LO&colon;DY&colon;ed=brack	!	!LO:MO:null:mod=!LO&colon;DY&colon;ed=brack	!	!
!	!	!	!	!	!	!	!
!	!	!	!LO:MO:null:mod=p	!	!LO:MO:null:mod=p	!	!LO:DY:a:t=p.
1GG	.	1G	.	4.b/	.	4.dd\	p
.	.	.	.	8cc\	.	8ee\	.
.	.	.	.	4.b/	.	4.dd\	.
.	.	.	.	8a/	.	8cc\	.
2GG/	.	2G/	.	4.g/	.	4.b/	.
.	.	.	.	8a/	.	8cc\	.
=53-	=53-	=53-	=53-	=53-	=53-	=53-	=53-
!LO:TX:t=P:problem:kreska pseudotaktowa	!	!	!	!	!	!	!
1.D	.	1d	.	1f#X	.	1a	.
!	!	!LO:TX:t=P:problem:kreska pseudotaktowa	!	!LO:TX:t=P:problem:kreska pseudotaktowa	!	!LO:TX:t=P:problem:kreska pseudotaktowa	!
.	.	2r	.	2r	.	2r	.
=54-	=54-	=54-	=54-	=54-	=54-	=54-	=54-
!	!	!	!LO:MO:null:mod=!LO&colon;DY&colon;ed=brack	!	!LO:MO:null:mod=!LO&colon;DY&colon;ed=brack	!	!
!	!	!	!	!	!	!	!
!	!	!	!LO:MO:null:mod=f	!	!LO:MO:null:mod=f	!	!LO:DY:a:t=f.
1D	.	1d	.	4.ff\	.	4.aa\	f
!	!	!	!	!	!	!LO:TX:a:t=P:problem:♭ above	!
.	.	.	.	8gg\	.	8bb-X\	.
.	.	.	.	4.ff\	.	4.aa\	.
.	.	.	.	8ee\	.	8gg\	.
2D/	.	2d\	.	4.dd\	.	4.ff\	.
.	.	.	.	8ee\	.	8gg\	.
!	!	!	!	!	!	!LO:LB:g=original	!
=55-	=55-	=55-	=55-	=55-	=55-	=55-	=55-
!LO:TX:t=P:problem:kreska pseudotaktowa	!	!	!	!	!	!	!LO:DY:a:T=p.
!	!	!	!	!	!	!	!LO:MO:null:mod=.
1.AA	.	1A	.	1cc#X	.	1ee	p
!	!	!LO:TX:t=P:problem:kreska pseudotaktowa	!	!	!	!	!
.	.	2r	.	2r	.	2r	.
=56-	=56-	=56-	=56-	=56-	=56-	=56-	=56-
!	!	!	!LO:MO:null:mod=!LO&colon;DY&colon;ed=brack	!	!LO:MO:null:mod=!LO&colon;DY&colon;ed=brack	!	!
!	!	!	!	!	!	!	!
!	!	!	!LO:MO:null:mod=p	!	!LO:MO:null:mod=p	!	!LO:MO:null:mod=p
1D	.	1d	.	4.ff\	.	4.aa\	.
!	!	!	!	!	!	!LO:TX:a:t=P:problem:♭ above	!
.	.	.	.	8gg\	.	8bb-X\	.
.	.	.	.	4.ff\	.	4.aa\	.
.	.	.	.	8ee\	.	8gg\	.
2D/	.	2d\	.	4.dd\	.	4.ff\	.
.	.	.	.	8ee\	.	8gg\	.
=57-	=57-	=57-	=57-	=57-	=57-	=57-	=57-
!LO:TX:t=P:problem:kreska pseudotaktowa	!	!	!	!	!	!	!
1.AA	.	1A	.	1cc#X	.	1ee	.
!	!	!LO:TX:t=P:problem:kreska pseudotaktowa	!	!	!	!LO:TX:t=P:problem:kreska pseudotaktowa	!
.	.	2r	.	2r	.	2r	.
*custos:D	*	*	*	*	*	*	*
!LO:LB:g=original	!	!	!	!	!	!	!
=58-	=58-	=58-	=58-	=58-	=58-	=58-	=58-
!	!	!	!LO:MO:null:mod=!LO&colon;DY&colon;ed=brack	!	!LO:MO:null:mod=!LO&colon;DY&colon;ed=brack	!	!
!	!	!	!	!	!	!	!
!	!	!	!LO:MO:null:mod=f	!	!LO:MO:null:mod=f	!	!LO:DY:a
1D	.	1d	.	4.ff\	.	4.aa\	f
.	.	.	.	8gg\	.	8bb-X\	.
.	.	.	.	4.ff\	.	4.aa\	.
.	.	.	.	8ee\	.	8gg\	.
2D/	.	2d\	.	2dd\	.	2ff\	.
=59-	=59-	=59-	=59-	=59-	=59-	=59-	=59-
!	!	!LO:TX:t=P:problem:kreska pseudotaktowa	!	!	!	!	!
!LO:TX:t=P:problem:kreska pseudotaktowa	!	!	!	!	!	!	!
1.C	.	1.c	.	4.ee\	.	4.gg\	.
.	.	.	.	8ff\	.	8aa\	.
.	.	.	.	4.ee\	.	4.gg\	.
.	.	.	.	8dd\	.	8ff\	.
.	.	.	.	2ccny\	.	2ee\	.
*	*	*custos:d	*	*	*	*	*
!	!	!LO:LB:g=original	!	!	!	!	!
=60-	=60-	=60-	=60-	=60-	=60-	=60-	=60-
!	!	!	!LO:MO:null:mod=!LO&colon;DY&colon;ed=brack	!	!LO:MO:null:mod=!LO&colon;DY&colon;ed=brack	!	!
!	!	!	!	!	!	!	!
!	!	!	!LO:MO:null:mod=p	!	!LO:MO:null:mod=p	!	!LO:DY:a
1D	.	1d	.	4.ff\	.	4.aa\	p
!	!	!	!	!	!	!LO:TX:a:t=P:problem:♭ above	!
.	.	.	.	8gg\	.	8bb-X\	.
.	.	.	.	4.ff\	.	4.aa\	.
.	.	.	.	8ee\	.	8gg\	.
2D/	.	2d\	.	2dd\	.	2ff\	.
=61-	=61-	=61-	=61-	=61-	=61-	=61-	=61-
!LO:TX:t=P:problem:kreska pseudotaktowa	!	!	!	!	!	!	!
1.C	.	1c	.	4.ee\	.	4.gg\	.
.	.	.	.	8ff\	.	8aa\	.
.	.	.	.	4.ee\	.	4.gg\	.
.	.	.	.	8dd\	.	8ff\	.
!	!	!	!	!	!	!LO:TX:t=P:problem:kreska pseudotaktowa	!
!	!	!LO:TX:t=P:problem:kreska pseudotaktowa	!	!LO:TX:t=P:problem:kreska pseudotaktowa	!	!	!
.	.	2r	.	2cc\	.	2ee\	.
*	*	*	*	*	*	*custos:dd	*
!	!	!	!	!	!	!LO:LB:g=original	!
=62-	=62-	=62-	=62-	=62-	=62-	=62-	=62-
!	!	!	!LO:MO:null:mod=!LO&colon;DY&colon;ed=brack	!	!	!	!
!	!	!	!	!	!	!	!
!	!	!	!LO:MO:null:mod=f	!	!	!	!LO:DY:a:t=f.
1D	.	2d\	.	1.r	.	4.dd\	f
.	.	.	.	.	.	8ee\	.
.	.	2d\	.	.	.	4.ff\	.
.	.	.	.	.	.	8gg\	.
2AA/	.	2A/	.	.	.	4.ee\	.
.	.	.	.	.	.	8ff\	.
=63-	=63-	=63-	=63-	=63-	=63-	=63-	=63-
!	!	!	!	!	!LO:MO:null:mod=!LO&colon;DY&colon;ed=brack	!	!
!	!	!	!	!	!	!	!
!	!	!	!	!	!LO:MO:null:mod=f	!	!
1D	.	1D	.	4.dd\	.	1dd	.
.	.	.	.	8ee\	.	.	.
.	.	.	.	4.ff\	.	.	.
.	.	.	.	8gg\	.	.	.
!LO:TX:t=P:problem:kreska pseudotaktowa	!	!LO:TX:t=P:problem:kreska pseudotaktowa	!	!	!	!LO:TX:t=P:problem:kreska pseudotaktowa	!
2AA/	.	2r	.	4.ee\	.	2r	.
.	.	.	.	8ff\	.	.	.
=64-	=64-	=64-	=64-	=64-	=64-	=64-	=64-
!	!	!	!LO:MO:null:mod=!LO&colon;DY&colon;ed=brack	!	!	!	!
!	!	!	!	!	!	!	!
!	!	!	!LO:MO:null:mod=p	!	!	!	!LO:DY:a:t=p.
1D	.	2d\	.	1dd	.	4.dd\	p
.	.	.	.	.	.	8ee\	.
.	.	2d\	.	.	.	4.ff\	.
.	.	.	.	.	.	8gg\	.
2AA/	.	2c#X\	.	2r	.	4.ee\	.
.	.	.	.	.	.	8ff\	.
=65-	=65-	=65-	=65-	=65-	=65-	=65-	=65-
!	!	!	!	!LO:TX:t=P:problem: VHV nie wy[wietla pauzy	!	!	!
1D	.	4.d\	.	1.r	.	1dd	.
.	.	8e\	.	.	.	.	.
.	.	4.f\	.	.	.	.	.
.	.	8g\	.	.	.	.	.
!LO:TX:t=P:problem:kreska pseudotaktowa	!	!	!	!	!	!LO:TX:t=P:problem:kreska pseudotaktowa	!
2AA/	.	4.e\	.	.	.	2r	.
.	.	8f\	.	.	.	.	.
=66-	=66-	=66-	=66-	=66-	=66-	=66-	=66-
!	!	!	!LO:MO:null:mod=!LO&colon;DY&colon;ed=brack	!	!	!	!
!	!	!	!	!	!	!	!
!	!	!	!LO:MO:null:mod=f	!	!	!	!LO:DY:a:t=f.
1D	.	2d\	.	2dd\	.	4.dd\	f
.	.	.	.	.	.	8ee\	.
.	.	2D/	.	2dd\	.	4.ff\	.
.	.	.	.	.	.	8gg\	.
2AA/	.	2A/	.	2cc#X\	.	4.ee\	.
.	.	.	.	.	.	8ff\	.
=-	=-	=-	=-	=-	=-	=-	=-
*M2/2	*	*M2/2	*	*M2/2	*	*M2/2	*
*met(C|)	*	*met(C|)	*	*met(C|)	*	*met(C|)	*
*mmet(c|)	*	*mmet(c|)	*	*mmet(c|)	*	*mmet(c|)	*
1D	.	1D	.	1dd	.	1dd	.
*	*	*custos:F	*	*	*	*	*
!	!	!LO:LB:g=original	!	!	!	!	!
=67-	=67-	=67-	=67-	=67-	=67-	=67-	=67-
2r	.	2r	.	2r	.	2r	.
2FF/	.	2F/	.	2ff\	.	2aa\	.
=68-	=68-	=68-	=68-	=68-	=68-	=68-	=68-
2C/	.	2cny\	.	2ee\	.	2gg\	.
!LO:TX:t=P:problem:kreska pseudotaktowa	!	!	!	!	!	!	!
2D/	.	2d\	.	2dd\	.	2ff\	.
*custos:AA	*	*	*	*	*	*	*
!LO:LB:g=original	!	!	!	!	!	!	!
=69-	=69-	=69-	=69-	=69-	=69-	=69-	=69-
2.AA/	.	2A/	.	2cc#X\	.	2ee\	.
.	.	4r	.	4r	.	4r	.
!	!	!	!	!LO:TX:t=P:problem:kreska pseudotaktowa	!	!	!LO:DY:a
!	!	!	!	!	!	!	!LO:MO:null:mod=.
4FF/	.	4F/	.	4ff\	.	4aa\	f
=70-	=70-	=70-	=70-	=70-	=70-	=70-	=70-
4C/	.	4c\	.	8ee\L	.	8gg\L	.
.	.	.	.	16dd\L	.	16ff\L	.
.	.	.	.	16ee\JJ	.	16gg\JJ	.
4AA/	.	4A/	.	8.ff\L	.	8.aa\L	.
.	.	.	.	16ee\Jk	.	16gg\Jk	.
*	*	*	*	*	*	*custos:ff	*
!	!	!	!	!	!	!LO:LB:g=original	!
4BB-X/	.	4B-X\	.	8dd\L	.	8ff\L	.
.	.	.	.	16ccny\L	.	16ee\L	.
.	.	.	.	16dd\JJ	.	16ff\JJ	.
!LO:TX:t=P:problem:kreska pseudotaktowa	!	!	!	!	!	!	!
4GG/	.	4G/	.	8.ee\L	.	8.gg\L	.
!	!	!	!	!LO:TX:t=P:problem:kreska pseudotaktowa	!	!LO:TX:t=P:problem:kreska pseudotaktowa	!
.	.	.	.	16dd\Jk	.	16ff\Jk	.
=71-	=71-	=71-	=71-	=71-	=71-	=71-	=71-
2.AA/	.	2A/	.	2cc#X\	.	2ee\	.
.	.	4r	.	4r	.	4r	.
!	!	!	!LO:MO:null:mod=!LO&colon;DY&colon;ed=brack	!	!LO:MO:null:mod=!LO&colon;DY&colon;ed=brack	!	!
!	!	!	!	!	!	!	!
!	!	!	!LO:MO:null:mod=p	!	!LO:MO:null:mod=p	!	!LO:DY:a
4FF/	.	4F/	.	4ff\	.	4aa\	p
=72-	=72-	=72-	=72-	=72-	=72-	=72-	=72-
4C/	.	4c\	.	8ee\L	.	8gg\L	.
.	.	.	.	16dd\L	.	16ff\L	.
.	.	.	.	16ee\JJ	.	16gg\JJ	.
4AA/	.	4A/	.	8.ff\L	.	8.aa\L	.
.	.	.	.	16ee\Jk	.	16gg\Jk	.
4BB-X/	.	4B-X\	.	8dd\L	.	8ff\L	.
.	.	.	.	16ccny\L	.	16ee\L	.
.	.	.	.	16dd\JJ	.	16ff\JJ	.
*	*	*	*	*custos:ee	*	*	*
!LO:TX:t=P:problem:kreska pseudotaktowa	!	!	!	!LO:LB:g=original	!	!	!
4GG/	.	4G/	.	8.ee\L	.	8.gg\L	.
.	.	.	.	16dd\Jk	.	16ff\Jk	.
=73-	=73-	=73-	=73-	=73-	=73-	=73-	=73-
2GG/	.	2G/	.	2dd\	.	2ee\	.
2AA/	.	2A/	.	2cc#X\	.	2ee\	.
=74-	=74-	=74-	=74-	=74-	=74-	=74-	=74-
2.DD/	.	2D/	.	2dd\	.	2dd\	.
.	.	4r	.	4r	.	4r	.
!	!	!	!LO:MO:null:mod=!LO&colon;DY&colon;ed=brack	!	!LO:MO:null:mod=!LO&colon;DY&colon;ed=brack	!	!
!	!	!	!	!	!	!	!
!LO:TX:t=P:problem:kreska pseudotaktowa	!	!	!LO:MO:null:mod=f	!LO:TX:t=P:problem:kreska pseudotaktowa	!LO:MO:null:mod=f	!	!LO:DY:a
4FF/	.	4F/	.	4ff\	.	4aa\	f
=75-	=75-	=75-	=75-	=75-	=75-	=75-	=75-
4C/	.	4c\	.	8ee\L	.	8gg\L	.
.	.	.	.	16dd\L	.	16ff\L	.
.	.	.	.	16ee\JJ	.	16gg\JJ	.
4AA/	.	4A/	.	8.ff\L	.	8.aa\L	.
.	.	.	.	16ee\Jk	.	16gg\Jk	.
4BB-X/	.	4B-X\	.	8dd\L	.	8ff\L	.
.	.	.	.	16ccny\L	.	16ee\L	.
.	.	.	.	16dd\JJ	.	16ff\JJ	.
4GG/	.	4G/	.	8.ee\L	.	8.gg\L	.
!	!	!	!	!	!	!LO:TX:t=P:problem:kreska pseudotaktowa	!
.	.	.	.	16dd\Jk	.	16ff\Jk	.
*	*	*custos:G	*	*	*	*	*
!	!	!LO:LB:g=original	!	!	!	!	!
=76-	=76-	=76-	=76-	=76-	=76-	=76-	=76-
2GG/	.	2G/	.	2dd\	.	2ee\	.
!LO:TX:t=P:problem:kreska pseudotaktowa	!	!	!	!	!	!	!
2AA/	.	2A/	.	2cc#X\	.	2ee\	.
*	*	*	*	*	*	*custos:dd	*
!	!	!	!	!	!	!LO:LB:g=original	!
=77-	=77-	=77-	=77-	=77-	=77-	=77-	=77-
2.D/	.	2D/	.	2dd\	.	2dd\	.
.	.	4r	.	4r	.	4r	.
4B-X\	.	4B-X\	.	4b-X/	.	4dd\	.
*custos:F	*	*	*	*	*	*	*
!LO:LB:g=original	!	!	!	!	!	!	!
=78-	=78-	=78-	=78-	=78-	=78-	=78-	=78-
2F\	.	2F/	.	2a/	.	2cc\	.
!LO:TX:t=P:problem:kreska pseudotaktowa	!	!	!	!	!	!	!
2G\	-	2G/	.	2g/	.	2b-X/	.
=79-	=79-	=79-	=79-	=79-	=79-	=79-	=79-
2.D/	.	2D/	.	2f#X/	.	2a/	.
.	.	4r	.	4r	.	4r	.
!	!	!LO:TX:t=P:problem:kreska pseudotaktowa	!	!LO:TX:t=P:problem:kreska pseudotaktowa	!	!	!LO:DY:a
!	!	!	!	!	!	!	!LO:MO:null:mod=.
4BB-X/	.	4B-X\	.	4b-X/	.	4dd\	f
=80-	=80-	=80-	=80-	=80-	=80-	=80-	=80-
4F\	.	4F/	.	8a/L	.	8cc\L	.
!	!	!	!	!	!	!LO:TX:a:t=P:problem:♭ above	!
.	.	.	.	16g/L	.	16b-X\L	.
.	.	.	.	16a/JJ	.	16cc\JJ	.
*	*	*	*	*custos:b-	*	*	*
!	!	!	!	!LO:LB:g=original	!	!	!
4D/	.	4D/	.	8.b-X/L	.	8.dd\L	.
.	.	.	.	16a/Jk	.	16cc\Jk	.
4E-X\	.	4E-X/	.	8g/L	.	8b-X/L	.
.	.	.	.	16fny/L	.	16a/L	.
.	.	.	.	16g/JJ	.	16b-/JJ	.
!LO:TX:t=P:problem:kreska pseudotaktowa	!	!	!	!	!	!	!
4C/	.	4C/	.	8.a/L	.	8.cc\L	.
!	!	!	!	!	!	!LO:TX:t=P:problem:kreska pseudotaktowa	!
!	!	!	!	!LO:TX:t=P:problem:kreska pseudotaktowa	!	!LO:TX:a:t=P:problem:♭ above	!
.	.	.	.	16g/Jk	.	16b-X\Jk	.
=81-	=81-	=81-	=81-	=81-	=81-	=81-	=81-
2.D/	.	2D/	.	2f#X/	.	2a/	.
.	.	4r	.	4r	.	4r	.
!	!	!	!LO:MO:null:mod=!LO&colon;DY&colon;ed=brack	!	!LO:MO:null:mod=!LO&colon;DY&colon;ed=brack	!	!
!	!	!	!	!	!	!	!
!	!	!LO:TX:t=P:problem:kreska pseudotaktowa	!LO:MO:null:mod=p	!	!LO:MO:null:mod=p	!	!LO:DY:a
4BB-X/	.	4B-X\	.	4b-X/	.	4dd\	p
=82-	=82-	=82-	=82-	=82-	=82-	=82-	=82-
4F\	.	4F/	.	8a/L	.	8cc\L	.
!	!	!	!	!	!	!LO:TX:a:t=P:problem:# above	!
.	.	.	.	16g/L	.	16b-X\L	.
.	.	.	.	16a/JJ	.	16cc\JJ	.
4D/	.	4D/	.	8.b-X/L	.	8.dd\L	.
.	.	.	.	16a/Jk	.	16cc\Jk	.
4E-X\	.	4E-X/	.	8g/L	.	8b-X/L	.
.	.	.	.	16fny/L	.	16a/L	.
!	!	!	!	!	!	!LO:SIC:s=16b-JJ	!
.	.	.	.	16g/JJ	.	16b-/J	.
!LO:TX:t=P:problem:kreska pseudotaktowa	!	!	!	!	!	!LO:SIC:s=8.ccL	!
4C/	.	4C/	.	8.a/L	.	8.cc/	.
!	!	!	!	!	!	!LO:TX:a:t=P:problem:♭ below	!
.	.	.	.	16g/Jk	.	16b-X/Jk	.
=83-	=83-	=83-	=83-	=83-	=83-	=83-	=83-
2C/	.	2C/	.	2g/	.	2a/	.
!	!	!LO:TX:t=P:problem:kreska pseudotaktowa	!	!	!	!	!
2D/	.	2D/	.	2f#X/	.	2a/	.
*	*	*custos:G	*	*	*	*	*
!	!	!LO:LB:g=original	!	!	!	!	!
=84-	=84-	=84-	=84-	=84-	=84-	=84-	=84-
2.GG/	.	2G/	.	2g/	.	2g/	.
*	*	*	*	*	*	*custos:bb-	*
!	!	!	!	!	!	!LO:LB:g=original	!
.	.	4r	.	4r	.	4r	.
!	!	!	!LO:MO:null:mod=!LO&colon;DY&colon;ed=brack	!	!LO:MO:null:mod=!LO&colon;DY&colon;ed=brack	!	!
!	!	!	!	!	!	!	!
!LO:TX:t=P:problem:kreska pseudotaktowa	!	!	!LO:MO:null:mod=f	!	!LO:MO:null:mod=f	!	!LO:DY:a
4BB-X/	.	4B-X\	.	4dd\	.	4bb-X\	f
=85-	=85-	=85-	=85-	=85-	=85-	=85-	=85-
4F\	.	4F/	.	8ccny\L	.	8aa\L	.
!	!	!	!	!LO:TX:a:t=P:problem:♭ above	!	!	!
.	.	.	.	16b-X\L	.	16gg\L	.
!	!	!	!	!	!	!LO:SIC:s=16aaJJ	!
.	.	.	.	16cc\JJ	.	16aa\J	.
!	!	!	!	!	!	!LO:SIC:s=8.bb-L	!
4D/	.	4D/	.	8.dd\L	.	8.bb-X\	.
.	.	.	.	16cc\Jk	.	16aa\Jk	.
4E-X\	.	4E-X/	.	8b-X/L	.	8gg\L	.
.	.	.	.	16a/L	.	16ff\L	.
!	!	!	!	!	!	!LO:SIC:s=16ggJJ	!
.	.	.	.	16b-/JJ	.	16gg\J	.
!	!	!	!	!	!	!LO:SIC:s=8.aaL	!
4C/	.	4C/	.	8.cc\L	.	8.aa\	.
!	!	!	!	!LO:TX:a:t=P:problem:♭ above	!	!	!
.	.	.	.	16b-X\Jk	.	16gg\Jk	.
*custos:C	*	*	*	*custos:a	*	*	*
!LO:LB:g=original	!	!	!	!LO:LB:g=original	!	!	!
=86-	=86-	=86-	=86-	=86-	=86-	=86-	=86-
2C/	.	2C/	.	2a/	.	2gg\	.
!LO:TX:t=P:problem:kreska pseudotaktowa	!	!	!	!	!	!	!
2D/	.	2D/	.	2a/	.	2ff#X\	.
=87-	=87-	=87-	=87-	=87-	=87-	=87-	=87-
2.G\	.	2G/	.	2g/	.	2gg\	.
.	.	4r	.	4r	.	4r	.
!	!	!	!LO:MO:null:mod=!LO&colon;DY&colon;ed=brack	!	!LO:MO:null:mod=!LO&colon;DY&colon;ed=brack	!	!
!	!	!	!	!	!	!	!
!	!	!	!LO:MO:null:mod=p	!LO:TX:t=P:problem:kreska pseudotaktowa	!LO:MO:null:mod=p	!	!LO:DY:a
4BB-X/	.	4B-X\	.	4dd\	.	4bb-X\	p
=88-	=88-	=88-	=88-	=88-	=88-	=88-	=88-
4F\	.	4F/	.	8cc\L	.	8aa\L	.
!	!	!	!	!LO:TX:a:t=P:problem:♭ above	!	!	!
.	.	.	.	16b-X\L	.	16gg\L	.
.	.	.	.	16cc\JJ	.	16aa\JJ	.
4D/	.	4D/	.	8.dd\L	.	8.bb-X\L	.
.	.	.	.	16cc\Jk	.	16aa\Jk	.
4E-X\	.	4E-X/	.	8b-X/L	.	8gg\L	.
.	.	.	.	16a/L	.	16ffny\L	.
!	!	!	!	!	!	!LO:SIC:s=16ggJJ	!
.	.	.	.	16b-/JJ	.	16gg\J	.
!	!	!	!	!	!	!LO:SIC:s=8.aaL	!
4C/	.	4C/	.	8.cc/L	.	8.aa\	.
!	!	!	!	!LO:TX:a:t=P:problem:♭ above	!	!	!
.	.	.	.	16b-X/Jk	.	16gg\Jk	.
=89-	=89-	=89-	=89-	=89-	=89-	=89-	=89-
2C/	.	2C/	.	2a/	.	2gg\	.
2D/	.	2D/	.	2a/	.	2ff#X\	.
=90-	=90-	=90-	=90-	=90-	=90-	=90-	=90-
!	!	!	!	!LO:N:acc=#	!	!	!
!LO:SIC:s=1GG;	!	!LO:SIC:s=1G;	!	!LO:SIC:s=1b;	!	!LO:SIC:s=1gg;	!
1GGl;;	.	1Gl;;	.	1bnl;;	.	1ggl;;	.
==	==	==	==	==	==	==	==
*-	*-	*-	*-	*-	*-	*-	*-
!!!system-decoration: [(g1)]s4
!!!RDF**kern: l = terminal long
!!!ENG: Filip Voros
!!!END: 2022-11-05
!!!ENG: Jan Barakat
!!!END: 2022-11-17
!!!EST: revision finished 2022-11-29
!!!ENC-modern: Andrzej Borzym
!!!END-modern: 2022-12-06
!!!YEC: Copyright 2022 Narodowy Instytut Fryderyka Chopina (https://polishscores.org)
!!!YEM: License CC-BY-4.0 (https://creativecommons.org/licenses/by/4.0)
